packages/frontend/public/icons/twitterbutton.svg

<svg xmlns="http://www.w3.org/2000/svg"  viewBox="0 0 256 256" width="250px" height="250px" fill="FFFFFF">
<path d="M 5.9199219 6 L 20.582031 27.375 L 6.2304688 44 L 9.4101562 44 L 21.986328 29.421875 L 31.986328 44 L 44 44 L 28.681641 21.669922 L 42.199219 6 L 39.029297 6 L 27.275391 19.617188 L 17.933594 6 L 5.9199219 6 z M 9.7167969 8 L 16.880859 8 L 40.203125 42 L 33.039062 42 L 9.7167969 8 z"/></svg>

<svg xmlns="http://www.w3.org/2000/svg" xmlns:xlink="http://www.w3.org/1999/xlink" viewBox="0,0,256,256" width="250px" height="250px"><g fill="#ffffff" fill-rule="nonzero" stroke="none" stroke-width="1" stroke-linecap="butt" stroke-linejoin="miter" stroke-miterlimit="10" stroke-dasharray="" stroke-dashoffset="0" font-family="none" font-weight="none" font-size="none" text-anchor="none" style="mix-blend-mode: normal"><g transform="scale(5.12,5.12)"><path d="M5.91992,6l14.66211,21.375l-14.35156,16.625h3.17969l12.57617,-14.57812l10,14.57813h12.01367l-15.31836,-22.33008l13.51758,-15.66992h-3.16992l-11.75391,13.61719l-9.3418,-13.61719zM9.7168,8h7.16406l23.32227,34h-7.16406z"></path></g></g></svg>
